exports/road-deaths-over-the-long-term_v1_850x600.svg

<svg xmlns="http://www.w3.org/2000/svg" version="1.1" style="background-color:#fff;-webkit-font-smoothing:antialiased" width="850" height="600" font-family="'Helvetica Neue',Helvetica,Arial,sans-serif" font-size="18" text-rendering="optimizeLegibility"><g class="ChartTab"><g class="HeaderView"><g opacity=".8" transform="matrix(.27 0 0 .27 778 15)"><a xmlns:xlink="http://www.w3.org/1999/xlink" xlink:href="https://ourworldindata.org" target="_blank"><g><path fill="#1B2543" d="M0 0h211.2v130.1H0z"/><path fill="#E63912" d="M0 112.2h211.2v17.9H0z"/><g><path fill="none" d="M1.2 12.3h210.2v99.2H1.2z"/><path fill="#FFF" d="M37.8 32.2c0 12.7-7.7 19.4-17.1 19.4-9.7 0-16.6-7.5-16.6-18.7 0-11.7 7.3-19.3 17.1-19.3 10.1.1 16.6 7.7 16.6 18.6zm-28.6.6c0 7.9 4.3 14.9 11.8 14.9 7.5 0 11.8-6.9 11.8-15.3 0-7.3-3.8-14.9-11.8-14.9-7.9 0-11.8 7.3-11.8 15.3zM62.7 43.8c0 2.7.1 5.1.2 7.2h-4.3l-.3-4.3h-.1c-1.3 2.1-4 4.9-8.8 4.9-4.2 0-9.1-2.3-9.1-11.6V24.6h4.8v14.6c0 5 1.5 8.4 5.9 8.4 3.2 0 5.5-2.2 6.3-4.4.3-.7.4-1.6.4-2.5V24.6h4.8v19.2zM67.3 32.8c0-3.1-.1-5.8-.2-8.2h4.2l.2 5.2h.2c1.2-3.5 4.1-5.8 7.3-5.8.5 0 .9.1 1.4.2v4.5c-.5-.1-1-.2-1.6-.2-3.4 0-5.8 2.6-6.5 6.2-.1.7-.2 1.4-.2 2.2V51h-4.8V32.8zM95.4 51L86 14.2h5l4.4 18.6c1.1 4.6 2.1 9.2 2.7 12.7h.1c.6-3.7 1.8-8 3-12.8l4.9-18.5h5l4.5 18.7c1 4.4 2 8.7 2.6 12.6h.1c.8-4 1.8-8.1 3-12.7l4.9-18.5h4.9L120.6 51h-5L111 31.9c-1.1-4.7-1.9-8.3-2.4-12h-.1c-.7 3.7-1.5 7.3-2.8 12L100.4 51h-5zM154.9 37.6c0 9.8-6.8 14-13.2 14-7.2 0-12.7-5.2-12.7-13.6 0-8.8 5.8-14 13.1-14 7.7 0 12.8 5.5 12.8 13.6zm-21 .3c0 5.8 3.3 10.1 8 10.1 4.6 0 8-4.3 8-10.3 0-4.5-2.2-10.1-7.9-10.1s-8.1 5.2-8.1 10.3zM158.2 32.8c0-3.1-.1-5.8-.2-8.2h4.2l.2 5.2h.2c1.2-3.5 4.1-5.8 7.3-5.8.5 0 .9.1 1.4.2v4.5c-.5-.1-1-.2-1.6-.2-3.4 0-5.8 2.6-6.5 6.2-.1.7-.2 1.4-.2 2.2V51h-4.8V32.8zM173.5 12.3h4.8V51h-4.8V12.3zM206.5 12.3v31.9c0 2.3.1 5 .2 6.8h-4.3l-.2-4.6h-.2c-1.5 2.9-4.7 5.2-9 5.2-6.4 0-11.3-5.4-11.3-13.4-.1-8.8 5.4-14.2 11.9-14.2 4 0 6.8 1.9 8 4h.1V12.3h4.8zm-4.8 23.1c0-.6-.1-1.4-.2-2a7 7 0 00-6.9-5.6c-5 0-7.9 4.4-7.9 10.2 0 5.3 2.6 9.8 7.8 9.8 3.2 0 6.2-2.1 7.1-5.7.2-.7.2-1.3.2-2.1v-4.6zM42.8 64c.1 1.6-1.1 2.9-3.1 2.9-1.7 0-2.9-1.3-2.9-2.9 0-1.7 1.3-3 3-3 1.9 0 3 1.3 3 3zm-5.4 33.8V71.4h4.8v26.4h-4.8zM47.5 78.6c0-2.7-.1-5-.2-7.1h4.3l.3 4.4h.1c1.3-2.5 4.4-5 8.8-5 3.7 0 9.4 2.2 9.4 11.2v15.8h-4.8V82.6c0-4.3-1.6-7.8-6.1-7.8-3.2 0-5.6 2.2-6.5 4.9-.2.6-.3 1.4-.3 2.2v15.9h-4.8V78.6zM84 61.6c2.9-.4 6.3-.8 10.1-.8 6.8 0 11.7 1.6 14.9 4.6 3.3 3 5.2 7.3 5.2 13.2 0 6-1.9 10.9-5.3 14.3-3.4 3.4-9.1 5.3-16.3 5.3-3.4 0-6.2-.2-8.6-.4V61.6zm4.8 32.5c1.2.2 3 .3 4.8.3 10.2 0 15.7-5.7 15.7-15.6.1-8.7-4.9-14.2-14.9-14.2-2.5 0-4.3.2-5.6.5v29zM132.1 97.8l-.4-3.3h-.2a9.79 9.79 0 01-8.1 3.9c-5.4 0-8.1-3.8-8.1-7.6 0-6.4 5.7-9.9 15.9-9.8v-.5c0-2.2-.6-6.1-6-6.1-2.5 0-5 .8-6.9 2l-1.1-3.2c2.2-1.4 5.4-2.3 8.7-2.3 8.1 0 10.1 5.5 10.1 10.8v9.9c0 2.3.1 4.5.4 6.3h-4.3zm-.7-13.4c-5.3-.1-11.2.8-11.2 5.9 0 3.1 2.1 4.6 4.5 4.6 3.4 0 5.6-2.2 6.4-4.4.2-.5.3-1 .3-1.5v-4.6zM146.6 63.9v7.6h6.9v3.7h-6.9v14.2c0 3.3.9 5.1 3.6 5.1 1.3 0 2.2-.2 2.8-.3l.2 3.6c-.9.4-2.4.7-4.3.7-2.2 0-4-.7-5.2-2-1.4-1.4-1.9-3.8-1.9-6.9V75.1h-4.1v-3.7h4.1v-6.3l4.8-1.2zM171.4 97.8l-.4-3.3h-.2a9.79 9.79 0 01-8.1 3.9c-5.4 0-8.1-3.8-8.1-7.6 0-6.4 5.7-9.9 15.9-9.8v-.5c0-2.2-.6-6.1-6-6.1-2.5 0-5 .8-6.9 2l-1.1-3.2c2.2-1.4 5.4-2.3 8.7-2.3 8.1 0 10.1 5.5 10.1 10.8v9.9c0 2.3.1 4.5.4 6.3h-4.3zm-.7-13.4c-5.3-.1-11.2.8-11.2 5.9 0 3.1 2.1 4.6 4.5 4.6 3.4 0 5.6-2.2 6.4-4.4.2-.5.3-1 .3-1.5v-4.6z"/></g></g></a></g><a href="https://ourworldindata.org/grapher/road-deaths-over-the-long-term" target="_blank"><text font-size="27" x="15" y="36.6" fill="#555"><tspan x="15" y="36.6">Road deaths over the long-term</tspan></text></a><text font-size="14.4" x="15" y="55.5" fill="#666"><tspan x="15" y="55.52">Annual number of reported deaths resultant from any type of road accident. This includes vehicles, pedestrians and</tspan><tspan x="15" y="71.36">cyclists.</tspan></text></g><g class="LineChart"><defs><clipPath id="a"><path d="M59.9 0h830v925.2h-830z"/></clipPath></defs><g class="AxisBoxView"><g class="HorizontalAxis" fill="#666" text-anchor="middle" font-size="16.2"><text x="69.9" y="556.5">1950</text><text x="173" y="556.5">1960</text><text x="276.2" y="556.5">1970</text><text x="379.3" y="556.5">1980</text><text x="482.5" y="556.5">1990</text><text x="585.6" y="556.5">2000</text><text x="688.8" y="556.5">2010</text><text x="750.7" y="556.5">2016</text></g><g class="VerticalAxis" fill="#666" dominant-baseline="middle" text-anchor="end" font-size="16.2"><text x="64.9" y="535.3">0</text><text x="64.9" y="420.3">5,000</text><text x="64.9" y="305.3">10,000</text><text x="64.9" y="190.3">15,000</text></g><g class="AxisGridLines"><path stroke="#ccc" d="M69.9 535.3h680.77"/><path stroke="#ddd" stroke-dasharray="3,2" d="M69.9 420.3h680.77M69.9 305.3h680.77M69.9 190.3h680.77"/></g><g class="AxisGridLines" stroke="#ddd" stroke-dasharray="3,2"><path d="M69.9 535.3V93.9M173 535.3V93.9M276.2 535.3V93.9M379.3 535.3V93.9M482.5 535.3V93.9M585.6 535.3V93.9M688.8 535.3V93.9"/></g></g><g clip-path="url(#a)"><g class="HeightedLegend clickable"><g class="legendMark"><path fill="#3360a9" d="M760.67 460.35h10v2.5h-10z"/><text font-size="14.4" x="775.7" y="465.9" fill="#333"><tspan x="775.67" y="465.92">Germany</tspan></text></g></g><g class="Lines"><g class="key-Germany_0"><path stroke="#3360a9" stroke-linecap="round" d="M70 388l10-31h11l10-85 10-14 11-17 10-14 10 9 10 19 11-38 10-13 10-3 11 2 10-1 10-46 11 17 10-26 10-5 11 11h10l10-59 11 10 10-1 10 57 11 39 10-6 10 2 10-4 11 7 10 33 10 4 11 32 10 1 10-2 11 35 10 41 10-12 11 22 10-6 10 5 11 3 10-79 10 16 10 16 11 3 10 8 10 16 11 5 10 17 10 1 11 6 10 12 10 3 11 5 10 18 10 11 11 6 10 4 10 10 11 8 10 11 10-8 10 10 11 6 10-1 10-2 11 6" fill="none" stroke-width="1.5"/><g fill="#3360a9"><circle cx="70" cy="388" r="2"/><circle cx="80" cy="357" r="2"/><circle cx="91" cy="357" r="2"/><circle cx="101" cy="272" r="2"/><circle cx="111" cy="258" r="2"/><circle cx="122" cy="241" r="2"/><circle cx="132" cy="227" r="2"/><circle cx="142" cy="236" r="2"/><circle cx="152" cy="255" r="2"/><circle cx="163" cy="217" r="2"/><circle cx="173" cy="204" r="2"/><circle cx="183" cy="201" r="2"/><circle cx="194" cy="203" r="2"/><circle cx="204" cy="202" r="2"/><circle cx="214" cy="156" r="2"/><circle cx="225" cy="173" r="2"/><circle cx="235" cy="147" r="2"/><circle cx="245" cy="142" r="2"/><circle cx="256" cy="153" r="2"/><circle cx="266" cy="153" r="2"/><circle cx="276" cy="94" r="2"/><circle cx="287" cy="104" r="2"/><circle cx="297" cy="103" r="2"/><circle cx="307" cy="160" r="2"/><circle cx="318" cy="199" r="2"/><circle cx="328" cy="193" r="2"/><circle cx="338" cy="195" r="2"/><circle cx="348" cy="191" r="2"/><circle cx="359" cy="198" r="2"/><circle cx="369" cy="231" r="2"/><circle cx="379" cy="235" r="2"/><circle cx="390" cy="267" r="2"/><circle cx="400" cy="268" r="2"/><circle cx="410" cy="266" r="2"/><circle cx="421" cy="301" r="2"/><circle cx="431" cy="342" r="2"/><circle cx="441" cy="330" r="2"/><circle cx="452" cy="352" r="2"/><circle cx="462" cy="346" r="2"/><circle cx="472" cy="351" r="2"/><circle cx="483" cy="354" r="2"/><circle cx="493" cy="275" r="2"/><circle cx="503" cy="291" r="2"/><circle cx="513" cy="307" r="2"/><circle cx="524" cy="310" r="2"/><circle cx="534" cy="318" r="2"/><circle cx="544" cy="334" r="2"/><circle cx="555" cy="339" r="2"/><circle cx="565" cy="356" r="2"/><circle cx="575" cy="357" r="2"/><circle cx="586" cy="363" r="2"/><circle cx="596" cy="375" r="2"/><circle cx="606" cy="378" r="2"/><circle cx="617" cy="383" r="2"/><circle cx="627" cy="401" r="2"/><circle cx="637" cy="412" r="2"/><circle cx="648" cy="418" r="2"/><circle cx="658" cy="422" r="2"/><circle cx="668" cy="432" r="2"/><circle cx="679" cy="440" r="2"/><circle cx="689" cy="451" r="2"/><circle cx="699" cy="443" r="2"/><circle cx="709" cy="453" r="2"/><circle cx="720" cy="459" r="2"/><circle cx="730" cy="458" r="2"/><circle cx="740" cy="456" r="2"/><circle cx="751" cy="462" r="2"/></g></g></g></g></g><g class="SourcesFooter" fill="#777"><g class="clickable" fill="#777"><text font-size="12.6" x="15" y="581.6"><tspan x="15" y="581.58">Source: Statistisches Bundesamt</tspan></text></g><text font-size="12.6" x="649" y="581.6"><tspan x="649.02" y="581.58"><a target="_blank" href="https://ourworldindata.org" fill="#777">OurWorldInData.org</a> • <a href="http://creativecommons.org/licenses/by-sa/4.0/deed.en_US" target="_blank" fill="#777">CC BY-SA</a></tspan></text></g></g></svg>

<svg xmlns="http://www.w3.org/2000/svg" version="1.1" style="font-family: 'Helvetica Neue', Helvetica, Arial, sans-serif; font-size: 18px; background-color: white; text-rendering: optimizeLegibility; -webkit-font-smoothing: antialiased;" width="850" height="600"><g class="ChartTab"><g class="HeaderView"><g opacity="0.8" transform="translate(778, 15) scale(0.27)"><a xmlns:xlink="http://www.w3.org/1999/xlink" xlink:href="https://ourworldindata.org" target="_blank"><g><rect x="0" y="0" fill="#1B2543" width="211.2" height="130.1"/><rect x="0" y="112.2" fill="#E63912" width="211.2" height="17.9"/><g><rect x="1.2" y="12.3" fill="none" width="210.2" height="99.2"/><path fill="#FFFFFF" d="M37.8,32.2c0,12.7-7.7,19.4-17.1,19.4c-9.7,0-16.6-7.5-16.6-18.7c0-11.7,7.3-19.3,17.1-19.3 C31.3,13.7,37.8,21.3,37.8,32.2z M9.2,32.8c0,7.9,4.3,14.9,11.8,14.9c7.5,0,11.8-6.9,11.8-15.3c0-7.3-3.8-14.9-11.8-14.9 C13.1,17.5,9.2,24.8,9.2,32.8z"/><path fill="#FFFFFF" d="M62.7,43.8c0,2.7,0.1,5.1,0.2,7.2h-4.3l-0.3-4.3h-0.1c-1.3,2.1-4,4.9-8.8,4.9c-4.2,0-9.1-2.3-9.1-11.6 V24.6h4.8v14.6c0,5,1.5,8.4,5.9,8.4c3.2,0,5.5-2.2,6.3-4.4c0.3-0.7,0.4-1.6,0.4-2.5V24.6h4.8V43.8z"/><path fill="#FFFFFF" d="M67.3,32.8c0-3.1-0.1-5.8-0.2-8.2h4.2l0.2,5.2h0.2c1.2-3.5,4.1-5.8,7.3-5.8c0.5,0,0.9,0.1,1.4,0.2v4.5 c-0.5-0.1-1-0.2-1.6-0.2c-3.4,0-5.8,2.6-6.5,6.2c-0.1,0.7-0.2,1.4-0.2,2.2V51h-4.8V32.8z"/><path fill="#FFFFFF" d="M95.4,51l-9.4-36.8h5l4.4,18.6c1.1,4.6,2.1,9.2,2.7,12.7h0.1c0.6-3.7,1.8-8,3-12.8l4.9-18.5h5l4.5,18.7 c1,4.4,2,8.7,2.6,12.6h0.1c0.8-4,1.8-8.1,3-12.7l4.9-18.5h4.9L120.6,51h-5L111,31.9c-1.1-4.7-1.9-8.3-2.4-12h-0.1 c-0.7,3.7-1.5,7.3-2.8,12L100.4,51H95.4z"/><path fill="#FFFFFF" d="M154.9,37.6c0,9.8-6.8,14-13.2,14c-7.2,0-12.7-5.2-12.7-13.6c0-8.8,5.8-14,13.1-14 C149.8,24,154.9,29.5,154.9,37.6z M133.9,37.9c0,5.8,3.3,10.1,8,10.1c4.6,0,8-4.3,8-10.3c0-4.5-2.2-10.1-7.9-10.1 C136.3,27.6,133.9,32.8,133.9,37.9z"/><path fill="#FFFFFF" d="M158.2,32.8c0-3.1-0.1-5.8-0.2-8.2h4.2l0.2,5.2h0.2c1.2-3.5,4.1-5.8,7.3-5.8c0.5,0,0.9,0.1,1.4,0.2v4.5 c-0.5-0.1-1-0.2-1.6-0.2c-3.4,0-5.8,2.6-6.5,6.2c-0.1,0.7-0.2,1.4-0.2,2.2V51h-4.8V32.8z"/><path fill="#FFFFFF" d="M173.5,12.3h4.8V51h-4.8V12.3z"/><path fill="#FFFFFF" d="M206.5,12.3v31.9c0,2.3,0.1,5,0.2,6.8h-4.3l-0.2-4.6H202c-1.5,2.9-4.7,5.2-9,5.2 c-6.4,0-11.3-5.4-11.3-13.4c-0.1-8.8,5.4-14.2,11.9-14.2c4,0,6.8,1.9,8,4h0.1V12.3H206.5z M201.7,35.4c0-0.6-0.1-1.4-0.2-2 c-0.7-3.1-3.3-5.6-6.9-5.6c-5,0-7.9,4.4-7.9,10.2c0,5.3,2.6,9.8,7.8,9.8c3.2,0,6.2-2.1,7.1-5.7c0.2-0.7,0.2-1.3,0.2-2.1V35.4z"/><path fill="#FFFFFF" d="M42.8,64c0.1,1.6-1.1,2.9-3.1,2.9c-1.7,0-2.9-1.3-2.9-2.9c0-1.7,1.3-3,3-3C41.7,61,42.8,62.3,42.8,64z M37.4,97.8V71.4h4.8v26.4H37.4z"/><path fill="#FFFFFF" d="M47.5,78.6c0-2.7-0.1-5-0.2-7.1h4.3l0.3,4.4h0.1c1.3-2.5,4.4-5,8.8-5c3.7,0,9.4,2.2,9.4,11.2v15.8h-4.8 V82.6c0-4.3-1.6-7.8-6.1-7.8c-3.2,0-5.6,2.2-6.5,4.9c-0.2,0.6-0.3,1.4-0.3,2.2v15.9h-4.8V78.6z"/><path fill="#FFFFFF" d="M84,61.6c2.9-0.4,6.3-0.8,10.1-0.8c6.8,0,11.7,1.6,14.9,4.6c3.3,3,5.2,7.3,5.2,13.2c0,6-1.9,10.9-5.3,14.3 c-3.4,3.4-9.1,5.3-16.3,5.3c-3.4,0-6.2-0.2-8.6-0.4V61.6z M88.8,94.1c1.2,0.2,3,0.3,4.8,0.3c10.2,0,15.7-5.7,15.7-15.6 c0.1-8.7-4.9-14.2-14.9-14.2c-2.5,0-4.3,0.2-5.6,0.5V94.1z"/><path fill="#FFFFFF" d="M132.1,97.8l-0.4-3.3h-0.2c-1.5,2.1-4.3,3.9-8.1,3.9c-5.4,0-8.1-3.8-8.1-7.6c0-6.4,5.7-9.9,15.9-9.8v-0.5 c0-2.2-0.6-6.1-6-6.1c-2.5,0-5,0.8-6.9,2l-1.1-3.2c2.2-1.4,5.4-2.3,8.7-2.3c8.1,0,10.1,5.5,10.1,10.8v9.9c0,2.3,0.1,4.5,0.4,6.3 H132.1z M131.4,84.4c-5.3-0.1-11.2,0.8-11.2,5.9c0,3.1,2.1,4.6,4.5,4.6c3.4,0,5.6-2.2,6.4-4.4c0.2-0.5,0.3-1,0.3-1.5V84.4z"/><path fill="#FFFFFF" d="M146.6,63.9v7.6h6.9v3.7h-6.9v14.2c0,3.3,0.9,5.1,3.6,5.1c1.3,0,2.2-0.2,2.8-0.3l0.2,3.6 c-0.9,0.4-2.4,0.7-4.3,0.7c-2.2,0-4-0.7-5.2-2c-1.4-1.4-1.9-3.8-1.9-6.9V75.1h-4.1v-3.7h4.1v-6.3L146.6,63.9z"/><path fill="#FFFFFF" d="M171.4,97.8l-0.4-3.3h-0.2c-1.5,2.1-4.3,3.9-8.1,3.9c-5.4,0-8.1-3.8-8.1-7.6c0-6.4,5.7-9.9,15.9-9.8v-0.5 c0-2.2-0.6-6.1-6-6.1c-2.5,0-5,0.8-6.9,2l-1.1-3.2c2.2-1.4,5.4-2.3,8.7-2.3c8.1,0,10.1,5.5,10.1,10.8v9.9c0,2.3,0.1,4.5,0.4,6.3 H171.4z M170.7,84.4c-5.3-0.1-11.2,0.8-11.2,5.9c0,3.1,2.1,4.6,4.5,4.6c3.4,0,5.6-2.2,6.4-4.4c0.2-0.5,0.3-1,0.3-1.5V84.4z"/></g></g></a></g><a href="https://ourworldindata.org/grapher/road-deaths-over-the-long-term" target="_blank"><text font-size="27.00" x="15.0" y="36.6" fill="#555"><tspan x="15" y="36.6">Road deaths over the long-term</tspan></text></a><text font-size="14.40" x="15.0" y="55.5" fill="#666"><tspan x="15" y="55.519999999999996">Annual number of reported deaths resultant from any type of road accident. This includes vehicles, pedestrians and</tspan><tspan x="15" y="71.36">cyclists.</tspan></text></g><g class="LineChart"><defs><clipPath id="boundsClip-2"><rect x="59.896" y="0" width="830" height="925.2"></rect></clipPath></defs><g class="AxisBoxView"><g class="HorizontalAxis"><text x="69.9" y="556.5" fill="#666" text-anchor="middle" font-size="16.2">1950</text><text x="173" y="556.5" fill="#666" text-anchor="middle" font-size="16.2">1960</text><text x="276.2" y="556.5" fill="#666" text-anchor="middle" font-size="16.2">1970</text><text x="379.3" y="556.5" fill="#666" text-anchor="middle" font-size="16.2">1980</text><text x="482.5" y="556.5" fill="#666" text-anchor="middle" font-size="16.2">1990</text><text x="585.6" y="556.5" fill="#666" text-anchor="middle" font-size="16.2">2000</text><text x="688.8" y="556.5" fill="#666" text-anchor="middle" font-size="16.2">2010</text><text x="750.7" y="556.5" fill="#666" text-anchor="middle" font-size="16.2">2016</text></g><g class="VerticalAxis"><text x="64.90" y="535.3" fill="#666" dominant-baseline="middle" text-anchor="end" font-size="16.2">0</text><text x="64.90" y="420.3" fill="#666" dominant-baseline="middle" text-anchor="end" font-size="16.2">5,000</text><text x="64.90" y="305.3" fill="#666" dominant-baseline="middle" text-anchor="end" font-size="16.2">10,000</text><text x="64.90" y="190.3" fill="#666" dominant-baseline="middle" text-anchor="end" font-size="16.2">15,000</text></g><g class="AxisGridLines"><line x1="69.90" y1="535.3" x2="750.67" y2="535.3" stroke="#ccc"></line><line x1="69.90" y1="420.3" x2="750.67" y2="420.3" stroke="#ddd" stroke-dasharray="3,2"></line><line x1="69.90" y1="305.3" x2="750.67" y2="305.3" stroke="#ddd" stroke-dasharray="3,2"></line><line x1="69.90" y1="190.3" x2="750.67" y2="190.3" stroke="#ddd" stroke-dasharray="3,2"></line></g><g class="AxisGridLines"><line x1="69.9" y1="535.30" x2="69.9" y2="93.90" stroke="#ddd" stroke-dasharray="3,2"></line><line x1="173" y1="535.30" x2="173" y2="93.90" stroke="#ddd" stroke-dasharray="3,2"></line><line x1="276.2" y1="535.30" x2="276.2" y2="93.90" stroke="#ddd" stroke-dasharray="3,2"></line><line x1="379.3" y1="535.30" x2="379.3" y2="93.90" stroke="#ddd" stroke-dasharray="3,2"></line><line x1="482.5" y1="535.30" x2="482.5" y2="93.90" stroke="#ddd" stroke-dasharray="3,2"></line><line x1="585.6" y1="535.30" x2="585.6" y2="93.90" stroke="#ddd" stroke-dasharray="3,2"></line><line x1="688.8" y1="535.30" x2="688.8" y2="93.90" stroke="#ddd" stroke-dasharray="3,2"></line></g></g><g clip-path="url(#boundsClip-2)"><g class="HeightedLegend clickable"><g class="legendMark"><rect x="760.672" y="454.40000000000003" width="74.328" height="14.4" fill="#fff" opacity="0"></rect><rect x="760.672" y="460.35" width="10" height="2.5" fill="#3360a9"></rect><text font-size="14.40" x="775.7" y="465.9" fill="#333"><tspan x="775.672" y="465.92">Germany</tspan></text></g></g><g class="Lines"><rect x="70" y="94" width="681" height="441" fill="rgba(255,255,255,0)" opacity="0"></rect><g class="key-Germany_0"><path stroke="#3360a9" stroke-linecap="round" d="M70 388L80 357L91 357L101 272L111 258L122 241L132 227L142 236L152 255L163 217L173 204L183 201L194 203L204 202L214 156L225 173L235 147L245 142L256 153L266 153L276 94L287 104L297 103L307 160L318 199L328 193L338 195L348 191L359 198L369 231L379 235L390 267L400 268L410 266L421 301L431 342L441 330L452 352L462 346L472 351L483 354L493 275L503 291L513 307L524 310L534 318L544 334L555 339L565 356L575 357L586 363L596 375L606 378L617 383L627 401L637 412L648 418L658 422L668 432L679 440L689 451L699 443L709 453L720 459L730 458L740 456L751 462" fill="none" stroke-width="1.5"></path><g fill="#3360a9"><circle cx="70" cy="388" r="2"></circle><circle cx="80" cy="357" r="2"></circle><circle cx="91" cy="357" r="2"></circle><circle cx="101" cy="272" r="2"></circle><circle cx="111" cy="258" r="2"></circle><circle cx="122" cy="241" r="2"></circle><circle cx="132" cy="227" r="2"></circle><circle cx="142" cy="236" r="2"></circle><circle cx="152" cy="255" r="2"></circle><circle cx="163" cy="217" r="2"></circle><circle cx="173" cy="204" r="2"></circle><circle cx="183" cy="201" r="2"></circle><circle cx="194" cy="203" r="2"></circle><circle cx="204" cy="202" r="2"></circle><circle cx="214" cy="156" r="2"></circle><circle cx="225" cy="173" r="2"></circle><circle cx="235" cy="147" r="2"></circle><circle cx="245" cy="142" r="2"></circle><circle cx="256" cy="153" r="2"></circle><circle cx="266" cy="153" r="2"></circle><circle cx="276" cy="94" r="2"></circle><circle cx="287" cy="104" r="2"></circle><circle cx="297" cy="103" r="2"></circle><circle cx="307" cy="160" r="2"></circle><circle cx="318" cy="199" r="2"></circle><circle cx="328" cy="193" r="2"></circle><circle cx="338" cy="195" r="2"></circle><circle cx="348" cy="191" r="2"></circle><circle cx="359" cy="198" r="2"></circle><circle cx="369" cy="231" r="2"></circle><circle cx="379" cy="235" r="2"></circle><circle cx="390" cy="267" r="2"></circle><circle cx="400" cy="268" r="2"></circle><circle cx="410" cy="266" r="2"></circle><circle cx="421" cy="301" r="2"></circle><circle cx="431" cy="342" r="2"></circle><circle cx="441" cy="330" r="2"></circle><circle cx="452" cy="352" r="2"></circle><circle cx="462" cy="346" r="2"></circle><circle cx="472" cy="351" r="2"></circle><circle cx="483" cy="354" r="2"></circle><circle cx="493" cy="275" r="2"></circle><circle cx="503" cy="291" r="2"></circle><circle cx="513" cy="307" r="2"></circle><circle cx="524" cy="310" r="2"></circle><circle cx="534" cy="318" r="2"></circle><circle cx="544" cy="334" r="2"></circle><circle cx="555" cy="339" r="2"></circle><circle cx="565" cy="356" r="2"></circle><circle cx="575" cy="357" r="2"></circle><circle cx="586" cy="363" r="2"></circle><circle cx="596" cy="375" r="2"></circle><circle cx="606" cy="378" r="2"></circle><circle cx="617" cy="383" r="2"></circle><circle cx="627" cy="401" r="2"></circle><circle cx="637" cy="412" r="2"></circle><circle cx="648" cy="418" r="2"></circle><circle cx="658" cy="422" r="2"></circle><circle cx="668" cy="432" r="2"></circle><circle cx="679" cy="440" r="2"></circle><circle cx="689" cy="451" r="2"></circle><circle cx="699" cy="443" r="2"></circle><circle cx="709" cy="453" r="2"></circle><circle cx="720" cy="459" r="2"></circle><circle cx="730" cy="458" r="2"></circle><circle cx="740" cy="456" r="2"></circle><circle cx="751" cy="462" r="2"></circle></g></g></g></g></g><g style="fill: #777;" class="SourcesFooter"><g style="fill: #777;" class="clickable"><text font-size="12.60" x="15.0" y="581.6"><tspan x="15" y="581.58">Source: Statistisches Bundesamt</tspan></text></g><text font-size="12.60" x="649.0" y="581.6"><tspan x="649.024" y="581.58"><a target='_blank' style='fill: #777;' href='https://ourworldindata.org'>OurWorldInData.org</a> • <a style="fill: #777;" href="http://creativecommons.org/licenses/by-sa/4.0/deed.en_US" target="_blank">CC BY-SA</a></tspan></text></g></g></svg>
